X:20
M:6/8
L:1/8
K:D
| ecA ABd | eac B2A | cBc dcd | EAA eAA | 
| dFF FEF | cBA BAF | eAA cBA | DFA dfa | 
gec dcB | bag aef | gea ged | eAA A3 :|| 

